X:889
T:Fanfare
C:Corvin
Z:Transcribed by Frank Nordberg - http://www.musicaviva.com
F:http://abc.musicaviva.com/tunes/corvin/corvin-festfanfare/corvin-festfanfare.abc
M:3/4
L:1/8
Q:192
K:G
GG/G/ GD/G/ BG/B/|dB/d/ g4|ec/e/ g3e|dGB4|Ad Ad Ad|
B/A/G/A/B4|Ae Ae Ae|f/e/d/e/ dd/d/ dd|GG/G/ GD/G/ BG/B/|dB/d/g4|
ec/e/ g3e|dGB4|A/E/A/c/e4|G/D/G/B/d4|ff/e/ dd/c/ BB/A/|G6|]
W:
W:
W:  From Musica Viva - http://www.musicaviva.com
W:  the Internet center for free sheet music downloads.
